X:131
T:Miss Gow’s Fancy TS.131
M:C|
L:1/8
Q:1/4=120
S:Thomas Sands’ MS,1810,Lincolnshire
R:reel
O:England;Lincolnshire
Z:vmp.Ruairidh Greig, 2011
K:Bb
E|(D/E/)F Fd BG”tr”F2|GBFB (Acce)|(D/E/)F Fd BGFB|FGEG DB,B,:|
e|dBfB cAec|dBGB FB De|dBfB cAec|dfce dBBe|
(d/c/)B fB cAec|dBGB FB DC|B,DFD GEec|dBcA B2B|]

